img/plane.svg

<svg fill="none" height="139" viewBox="0 0 152 139" width="152" xmlns="http://www.w3.org/2000/svg"><path d="m87.6534 78.6543c-1.2258.2745-2.4197.7831-3.5075 1.4936-2.8342 1.806-4.4832 4.3839-3.6828 5.7574.8003 1.3736 3.7467 1.0223 6.5809-.7837 1.1025-.6854 2.082-1.5614 2.878-2.5739.3694-.4892.4357-1.0987.1693-1.5543l-1.0397-1.7844c-.2645-.4571-.8133-.6744-1.3982-.5547z" fill="#d5d6db"/><path d="m80.5362 54.2961c-.8888.1992-1.7546.5681-2.5435 1.0834-2.0546 1.3092-3.251 3.1784-2.6711 4.1735.5799.9952 2.7171.7402 4.7715-.5688.7994-.4973 1.5096-1.1328 2.0869-1.867.2675-.3546.3155-.7962.1224-1.1265l-.7529-1.2921c-.1915-.3313-.5891-.4893-1.0133-.4025z" fill="#d5d6db"/><path d="m68.973 55.3161c-.1979-.0221-.4089.0306-.5918.1475l-4.8262 3.0755c-.4037.2565-.5652.7504-.3604 1.1034.0468.0809.1109.1499.1887.2032l11.895 8.1981 16.0927-10.2553z" fill="#029bc5"/><path d="m119.846 54.1569-43.794 27.5698-25.91 10.3102-13.2138 2.6266-1.4537-2.47 72.9985-45.0712c2.176-1.349 4.599-2.177 7.026-2.4 1.062-.0919 2.111-.0566 3.123.1048.897.136 1.748.3983 2.527.7792.87.4316 2.526.4813 3.062 1.3411.002-.0014 1.267 3.9461-4.365 7.2095z" fill="#e1e6e9"/><path d="m76.6326 78.0789-18.9458 30.2031c-.2367.424-.0962.899.3134 1.061.2513.099.559.06.8174-.104l4.8224-3.06c.9275-.588 1.7488-1.336 2.4131-2.196l36.7419-43.1968z" fill="#029bc5"/><path d="m28.8244 77.0704c-.316-.108-.6921-.052-1.0096.1502l-3.9863 2.5388c-.5431.3456-.7596 1.0102-.4836 1.4845.0526.0902.1209.1696.2028.2349l11.1686 8.9448 11.7428-7.3347z" fill="#029bc5"/><path d="m38.4599 92.0361-6.0112 8.4189c-.0882.121-.0674.273.0462.339.082.048.1939.039.2848-.022l3.7253-2.3605c.029-.0183.0552-.0413.0768-.0675l8.7835-10.6796z" fill="#029bc5"/><path d="m117.904 45.1901c-1.042-.1673-2.123-.203-3.218-.1068-1.065 1.4899-1.746 3.1635-1.975 4.8541-.017.3396.257.584.612.5459.11-.0119.22-.0506.318-.1127l6.865-4.3714c-.802-.3958-1.679-.6682-2.602-.8091z" fill="#029bc5"/><path d="m102.943 53.2286 4.482-2.8307 4.175 7.1009-4.482 2.8307z" fill="#d5d6db"/><g fill="#3a556a"><path d="m100.122 56.037c-.5399.3422-.7558.9998-.4816 1.4688l.4446.7598c.292.457.959.5374 1.49.1794.505-.3409.708-.9605.465-1.4181l-.444-.7598c-.274-.4686-.934-.5717-1.474-.2301z"/><path d="m96.0936 58.539c-.5401.3421-.756.9998-.4818 1.4688l.4443.7598c.2922.457.9593.5374 1.4902.1794.5052-.3409.7086-.9606.4651-1.4181l-.4442-.7598c-.2742-.4685-.9337-.5716-1.4736-.2301z"/><path d="m92.0637 61.0416c-.5396.3425-.7547.9994-.4807 1.468l.4443.7597c.2922.4571.9593.5374 1.4902.1795.5051-.341.7086-.9606.4651-1.4181l-.4442-.7598c-.2742-.4689-.9344-.5716-1.4747-.2293z"/><path d="m88.035 63.5434c-.5396.3426-.7547.9994-.4807 1.468l.4443.7598c.2922.457.9593.5374 1.4902.1794.5052-.3409.7086-.9605.4651-1.4181l-.4442-.7598c-.2745-.4688-.9346-.5715-1.4747-.2293z"/><path d="m84.0069 66.0453c-.5399.3427-.7551.9999-.481 1.4687l.4445.7601c.2741.4686.9339.5712 1.4739.2292s.7556-.9991.4815-1.4677l-.4445-.7601c-.2733-.469-.933-.5723-1.4733-.2309-.0004.0003-.0007.0004-.0011.0007z"/><path d="m79.9782 68.5471c-.5399.3428-.7551.9999-.481 1.4687l.4446.7601c.274.4686.9339.5712 1.4738.2292.54-.342.7556-.9991.4815-1.4676l-.4445-.7602c-.2733-.469-.933-.5723-1.4733-.2309-.0004.0003-.0009.0006-.0011.0007z"/><path d="m75.9494 71.049c-.5399.3427-.7551.9999-.481 1.4686l.4445.7601c.2747.4682.9349.5697 1.4743.2273.5385-.3419.7536-.9976.4808-1.4656l-.4445-.7601c-.2739-.4689-.9337-.572-1.4741-.2303z"/><path d="m71.9207 73.5509c-.5399.3428-.7551.9999-.481 1.4687l.4445.7601c.2748.4682.9349.5698 1.4743.2273.5385-.3419.7536-.9976.4809-1.4656l-.4446-.7601c-.2739-.469-.9337-.5721-1.4741-.2304z"/><path d="m67.8921 76.0528c-.5398.3427-.7551.9998-.4809 1.4686l.4445.7601c.2747.4681.9349.5697 1.4743.2273.5384-.3419.7536-.9976.4808-1.4656l-.4445-.7601c-.2742-.4688-.934-.5719-1.4742-.2303z"/><path d="m63.8622 78.5552c-.54.342-.7555.9991-.4815 1.4677l.0006.001.4445.7601c.2747.4681.9349.5697 1.4743.2273.5384-.3419.7535-.9976.4808-1.4656l-.4445-.7602c-.2739-.4689-.9338-.5721-1.4742-.2303z"/><path d="m59.8346 81.0564c-.5399.342-.7555.9991-.4815 1.4677l.0006.001.4445.7601c.2747.4681.9349.5697 1.4743.2273.5385-.3419.7536-.9976.4808-1.4656l-.4445-.7601c-.2741-.4688-.934-.572-1.4742-.2304z"/></g></svg>

<svg width="152" height="139" viewBox="0 0 152 139" fill="none" xmlns="http://www.w3.org/2000/svg">
<g id="plane">
<g id="Group">
<path id="Vector" d="M87.6534 78.6543C86.4276 78.9288 85.2337 79.4374 84.1459 80.1479C81.3117 81.9539 79.6627 84.5318 80.4631 85.9053C81.2634 87.2789 84.2098 86.9276 87.044 85.1216C88.1465 84.4362 89.126 83.5602 89.922 82.5477C90.2914 82.0585 90.3577 81.449 90.0913 80.9934L89.0516 79.209C88.7871 78.7519 88.2383 78.5346 87.6534 78.6543Z" fill="#D5D6DB"/>
<path id="Vector_2" d="M80.5362 54.2961C79.6474 54.4953 78.7816 54.8642 77.9927 55.3795C75.9381 56.6887 74.7417 58.5579 75.3216 59.553C75.9015 60.5482 78.0387 60.2932 80.0931 58.9842C80.8925 58.4869 81.6027 57.8514 82.18 57.1172C82.4475 56.7626 82.4955 56.321 82.3024 55.9907L81.5495 54.6986C81.358 54.3673 80.9604 54.2093 80.5362 54.2961Z" fill="#D5D6DB"/>
<path id="Vector_3" d="M68.973 55.3161C68.7751 55.294 68.5641 55.3467 68.3812 55.4636L63.555 58.5391C63.1513 58.7956 62.9898 59.2895 63.1946 59.6425C63.2414 59.7234 63.3055 59.7924 63.3833 59.8457L75.2783 68.0438L91.371 57.7885L68.973 55.3161Z" fill="#029BC5"/>
<path id="Vector_4" d="M119.846 54.1569L76.052 81.7267L50.142 92.0369L36.9282 94.6635L35.4745 92.1935L108.473 47.1223C110.649 45.7733 113.072 44.9453 115.499 44.7223C116.561 44.6304 117.61 44.6657 118.622 44.8271C119.519 44.9631 120.37 45.2254 121.149 45.6063C122.019 46.0379 123.675 46.0876 124.211 46.9474C124.213 46.946 125.478 50.8935 119.846 54.1569V54.1569Z" fill="#E1E6E9"/>
<path id="Vector_5" d="M76.6326 78.0789L57.6868 108.282C57.4501 108.706 57.5906 109.181 58.0002 109.343C58.2515 109.442 58.5592 109.403 58.8176 109.239L63.64 106.179C64.5675 105.591 65.3888 104.843 66.0531 103.983L102.795 60.7862L76.6326 78.0789Z" fill="#029BC5"/>
<path id="Vector_6" d="M28.8244 77.0704C28.5084 76.9624 28.1323 77.0184 27.8148 77.2206L23.8285 79.7594C23.2854 80.105 23.0689 80.7696 23.3449 81.2439C23.3975 81.3341 23.4658 81.4135 23.5477 81.4788L34.7163 90.4236L46.4591 83.0889L28.8244 77.0704Z" fill="#029BC5"/>
<path id="Vector_7" d="M38.4599 92.0361L32.4487 100.455C32.3605 100.576 32.3813 100.728 32.4949 100.794C32.5769 100.842 32.6888 100.833 32.7797 100.772L36.505 98.4115C36.534 98.3932 36.5602 98.3702 36.5818 98.344L45.3653 87.6644L38.4599 92.0361Z" fill="#029BC5"/>
<path id="Vector_8" d="M117.904 45.1901C116.862 45.0228 115.781 44.9871 114.686 45.0833C113.621 46.5732 112.94 48.2468 112.711 49.9374C112.694 50.277 112.968 50.5214 113.323 50.4833C113.433 50.4714 113.543 50.4327 113.641 50.3706L120.506 45.9992C119.704 45.6034 118.827 45.331 117.904 45.1901Z" fill="#029BC5"/>
<path id="Vector_9" d="M102.943 53.2286L107.425 50.3979L111.6 57.4988L107.118 60.3295L102.943 53.2286Z" fill="#D5D6DB"/>
<g id="Group_2">
<path id="Vector_10" d="M100.122 56.037C99.5821 56.3792 99.3662 57.0368 99.6404 57.5058L100.085 58.2656C100.377 58.7226 101.044 58.803 101.575 58.445C102.08 58.1041 102.283 57.4845 102.04 57.0269L101.596 56.2671C101.322 55.7985 100.662 55.6954 100.122 56.037V56.037Z" fill="#3A556A"/>
<path id="Vector_11" d="M96.0936 58.539C95.5535 58.8811 95.3376 59.5388 95.6118 60.0078L96.0561 60.7676C96.3483 61.2246 97.0154 61.305 97.5463 60.947C98.0515 60.6061 98.2549 59.9864 98.0114 59.5289L97.5672 58.7691C97.293 58.3006 96.6335 58.1975 96.0936 58.539V58.539Z" fill="#3A556A"/>
<path id="Vector_12" d="M92.0637 61.0416C91.5241 61.3841 91.309 62.041 91.583 62.5096L92.0273 63.2693C92.3195 63.7264 92.9866 63.8067 93.5175 63.4488C94.0226 63.1078 94.2261 62.4882 93.9826 62.0307L93.5384 61.2709C93.2642 60.802 92.604 60.6993 92.0637 61.0416V61.0416Z" fill="#3A556A"/>
<path id="Vector_13" d="M88.035 63.5434C87.4954 63.886 87.2803 64.5428 87.5543 65.0114L87.9986 65.7712C88.2908 66.2282 88.9579 66.3086 89.4888 65.9506C89.994 65.6097 90.1974 64.9901 89.9539 64.5325L89.5097 63.7727C89.2352 63.3039 88.5751 63.2012 88.035 63.5434V63.5434Z" fill="#3A556A"/>
<path id="Vector_14" d="M84.0069 66.0453C83.467 66.388 83.2518 67.0452 83.5259 67.514L83.9704 68.2741C84.2445 68.7427 84.9043 68.8453 85.4443 68.5033C85.9843 68.1613 86.1999 67.5042 85.9258 67.0356L85.4813 66.2755C85.208 65.8065 84.5483 65.7032 84.008 66.0446C84.0076 66.0449 84.0073 66.045 84.0069 66.0453Z" fill="#3A556A"/>
<path id="Vector_15" d="M79.9782 68.5471C79.4383 68.8899 79.2231 69.547 79.4972 70.0158L79.9418 70.7759C80.2158 71.2445 80.8757 71.3471 81.4156 71.0051C81.9556 70.6631 82.1712 70.006 81.8971 69.5375L81.4526 68.7773C81.1793 68.3083 80.5196 68.205 79.9793 68.5464C79.9789 68.5467 79.9784 68.547 79.9782 68.5471Z" fill="#3A556A"/>
<path id="Vector_16" d="M75.9494 71.049C75.4095 71.3917 75.1943 72.0489 75.4684 72.5176L75.9129 73.2777C76.1876 73.7459 76.8478 73.8474 77.3872 73.505C77.9257 73.1631 78.1408 72.5074 77.868 72.0394L77.4235 71.2793C77.1496 70.8104 76.4898 70.7073 75.9494 71.049Z" fill="#3A556A"/>
<path id="Vector_17" d="M71.9207 73.5509C71.3808 73.8937 71.1656 74.5508 71.4397 75.0196L71.8842 75.7797C72.159 76.2479 72.8191 76.3495 73.3585 76.007C73.897 75.6651 74.1121 75.0094 73.8394 74.5414L73.3948 73.7813C73.1209 73.3123 72.4611 73.2092 71.9207 73.5509Z" fill="#3A556A"/>
<path id="Vector_18" d="M67.8921 76.0528C67.3523 76.3955 67.137 77.0526 67.4112 77.5214L67.8557 78.2815C68.1304 78.7496 68.7906 78.8512 69.33 78.5088C69.8684 78.1669 70.0836 77.5112 69.8108 77.0432L69.3663 76.2831C69.0921 75.8143 68.4323 75.7112 67.8921 76.0528Z" fill="#3A556A"/>
<path id="Vector_19" d="M63.8622 78.5552C63.3222 78.8972 63.1067 79.5543 63.3807 80.0229L63.3813 80.0239L63.8258 80.784C64.1005 81.2521 64.7607 81.3537 65.3001 81.0113C65.8385 80.6694 66.0536 80.0137 65.7809 79.5457L65.3364 78.7855C65.0625 78.3166 64.4026 78.2134 63.8622 78.5552Z" fill="#3A556A"/>
<path id="Vector_20" d="M59.8346 81.0564C59.2947 81.3984 59.0791 82.0555 59.3531 82.5241L59.3537 82.5251L59.7982 83.2852C60.0729 83.7533 60.7331 83.8549 61.2725 83.5125C61.811 83.1706 62.0261 82.5149 61.7533 82.0469L61.3088 81.2868C61.0347 80.818 60.3748 80.7148 59.8346 81.0564Z" fill="#3A556A"/>
</g>
</g>
</g>
</svg>
